assets/ai/ai-acclaim-square.svg

<svg xmlns="http://www.w3.org/2000/svg" width="100%" height="100%" viewBox="-75.52 -43.52 599.04 599.04"><path d="M 48 32 C 21.5 32 0 53.5 0 80 L 0 432 C 0 458.5 21.5 480 48 480 L 400 480 C 426.5 480 448 458.5 448 432 L 448 80 C 448 53.5 426.5 32 400 32 L 48 32 z M 224 96 C 237.0204 105.04933 354.93407 216.22197 361.14258 227.14453 L 361.14258 287.32812 C 352.53794 287.53886 238.17196 167.70163 224 162.00977 C 209.8284 167.70163 95.462032 287.53887 86.857422 287.32812 L 86.857422 227.14453 C 93.065922 216.22197 210.97962 105.04933 224 96 z M 224 224.67188 C 237.02039 233.72119 354.93408 344.89385 361.14258 355.81641 L 361.14258 416 C 352.53794 416.21074 238.17196 296.37301 224 290.67969 C 209.8284 296.37301 95.462032 416.21071 86.857422 416 L 86.857422 355.81641 C 93.065922 344.89385 210.97962 233.7212 224 224.67188 z"/></svg>

<svg xmlns="http://www.w3.org/2000/svg" width="100%" height="100%" viewBox="-75.52 -43.52 599.04 599.04"><path d="M48 32C21.5 32 0 53.5 0 80v352c0 26.5 21.5 48 48 48h352c26.5 0 48-21.5 48-48V80c0-26.5-21.5-48-48-48H48zm176 64c13.02 9.05 130.934 120.222 137.143 131.145v60.183c-8.605.21-122.971-119.626-137.143-125.318-14.172 5.692-128.538 125.529-137.143 125.318v-60.183C93.066 216.222 210.98 105.049 224 96zm0 128.672c13.02 9.05 130.934 120.222 137.143 131.144V416c-8.605.21-122.971-119.627-137.143-125.32C209.828 296.373 95.462 416.21 86.857 416v-60.184C93.066 344.894 210.98 233.721 224 224.672z"/></svg>
